X:1
T:Title
%%score ( 1 2 ) ( 3 4 )
L:1/8
Q:1/4=85
M:4/4
K:Bb
V:1 treble nm="Grand Piano, Soprano"
V:2 treble 
V:3 bass nm="Choir Pad, Life, We Hail Thee"
V:4 bass 
V:1
 [DB]2 [B,D]>[CE] [DF][EG][EA][DB] | [Ge]2 [Fd]2 [Gd]2 [Gc]2 | [^Fd]2 [FA]>[Ac] [GB][DA][GB][GA] | %3
w: By~Edmund~Simon~Lorenz * * * * * *|||
 [=Ec]>[EB] [EA][EG] [_EG]2 [EF]2 | [EF][EF][EG][EA] [Dc]>[DB] [DB]2 | %5
w: ||
 [EA][EA][DB][Ec] [Ge]>[Fd] [Fd]2 | [^Fd][Fd][Fc][Ad] [Ac]>[GB] BG | .[CF]2 .[C=E]2 [CF]2 z2 | %8
w: |||
 [Ec]2 [D=B]2 [Ec]2 z [EF] | [EG][EA][DB][Fc] [Fd]2 [DB]2 | [Ec]2 [D=B]2 [Ec]2 z [EF] | %11
w: |||
 [EG][EA][DB][Fc] [Fd]2 [DB]2 | [Ee]2 [Ee]>[Ee] [EB]3 [Ec] | [Fd]2 [Fd]>[Fd] F2 D[D^F] | %14
w: |||
 [EG][FA][GB][Gc] [DF]2 [Ec]2 | [DB]8 |] %16
w: ||
V:2
 x8 | x8 | x8 | x8 | x8 | x8 | z4 z2 D2 | x8 | x8 | x8 | x8 | x8 | x8 | x8 | x8 | x8 |] %16
V:3
 [B,,F,]2 [B,,F,]>[B,,F,] [B,,B,][B,,B,][B,,F,][B,,F,] | B,2 B,2 [E,B,]2 [E,G,]2 | z4 D4 | %3
 [C,G,]>[C,G,] [C,C][C,B,] [F,B,]2 [F,A,]2 | [F,A,][F,A,][F,B,][F,C] [F,B,]>[F,B,] [F,B,]2 | %5
 [F,C][F,C][F,B,][F,A,] B,>B, B,2 | [A,D][A,D][A,D][^F,D] [G,D]>[G,D] [B,,B,]2 | %7
 .[C,A,]2 .[C,G,]2 [F,A,]2 z2 | [F,A,]2 [F,_A,]2 [F,=A,]2 z [F,A,] | %9
 [F,B,][F,C][F,B,][F,A,] B,2 B,2 | [F,A,]2 [F,_A,]2 [F,=A,]2 z [F,A,] | %11
 [F,B,][F,C][F,B,][F,A,] B,2 B,2 | [G,B,]2 [G,B,]>[G,B,] [^F,B,]2 [F,B,]2 | %13
 [F,B,]2 [F,B,]>[F,B,] [D,B,]2 [B,,B,]2 | [E,B,][E,B,][E,B,][E,B,] [F,B,]2 [F,A,]2 | [B,,F,]8 |] %16
V:4
 x8 | x8 | [D,A,]2 [D,D]>[D,D] G,^F,G,[G,B,] | x8 | x8 | x8 | x8 | x8 | x8 | x8 | x8 | x8 | x8 | %13
 x8 | x8 | x8 |] %16

